X:522
T:John Huband of Muirhead 
C:Joe Buchanan's Scottish Tome - Page 016.0
I:016 0
R:Reel
Z:Carl Allison
L:1/8
M:2/4
K:A
a/>f/ |"A" eA cA |"A" c/>f/e/<A/ cB/<A/ |"Bm" fB dB |"Bm" a/>g/f/<e/ "E"fa/>f/ |
|"A" eA cA |"A" e/>f/e/<A/ cB/<A/ |"Bm" B/d/f/<a/ "E"fe/d/ |"A" c"D"A "A"A2 :|
f/>g/ |"A" a>e ce |"A" A/c/e/f/ ec/<A/ | "Bm"f>e dB | "Bm"a/>g/f/<e/ "E"fe/>f/ |
|"A" a>e ce |"A" A/c/e/<f/ ec/<A/ |"Bm" B/d/f/<a/ "E"fe/d/ |"A" c"D"A "A"A2 :|
|"A" ce ef |"A" A/B/c/<A/ eA | "D"df fA |"Bm" a/g/f/<e/ "E"fe/>d/ |
|"A" ce ef |"A" A/B/c/<A/ eA |"Bm" B/d/f/<a/ "E"fe/d/ | "A"c"D"A "A"A2 |
|"A" ea c/d/e |"A" A/B/c/<A/ eA |"Bm" f/g/f/e/ dB |"Bm" a/g/f/<e/ "E"f2 |
|"A" e/f/a c/d/e |"A" A/B/c/<A/ eA |"Bm" B/d/f/<a/ "E"fe/d/ | "A"c"D"A "A"A |

